X: 185
T: No_44_Cow_Creek_Hunting_Dance_Song_(k).krn
N: Derived from No_44_Cow_Creek_Hunting_Dance_Song_(k).krn
%%abc-version 2.0
%%abcx-abcm2ps-target-version 5.9.1 (29 Sep 2008)
%%abc-creator hum2abc beta
%%abcx-conversion-date 2019/03/15 08:38:45
%%humdrum-veritas 2790873662
%%humdrum-veritas-data 3651931188
%%linebreak <none>
%%barnumbers 0
L: 1/8
M: 2/4
K: F clef=bass
[K:clef=bass][M:2/4]z2F,2 ]|:  
C2C2 | 
B,A,/ z/ CB, ||  
[M:3/4](A,3/F,/)F,2A,3/F,/ | 
F,4C2 ||  
[M:2/4]CA,B,2 | 
A,3/F,/B,2 ||  
[M:3/4]A,3/F,/F,2A,3/F,/ ||  
[M:2/4]F,4 | 
F,4 | 
F,2D, z | 
F,4 | 
[M:3/4]F,4F,2 :|]  



